X: 1
T: Appropriate Dipstick, The
M: 4/4
L: 1/8
R: reel
K: Gmix
GF |:DG, (3G,G,G, G2 DE |FG DF CF A,C |DG, (3G,G,G, GF DE |
FC A,C DG, GF |DG, (3G,G,G, G2 DE |FG DF CF A,C |
DG, (3G,G,G, GF DE |[1FC A,C DG, GF :|[2FC A,C DG, dc ||
|:Bd AB G2 c_B |Ac Gc F2 dc |Bd AB G2 BG |(3:2:1G(3:2:1B(3:2:1g Bc dc (3ccc :|
|:e2 ec A2 Bc |d2 dB G2 AB |cA Fc AF cA |[1Gg Bc dG cd :|[2BG GF G3 F |]
